src/main/resources/icons/FlexIcons/images/flash_remote_debug.svg

<svg xmlns="http://www.w3.org/2000/svg" width="16" height="16" viewBox="0 0 16 16">
  <g fill="none" fill-rule="evenodd">
    <path fill="#59A869" d="M14.8328831,13.1217949 L14.8328831,13.4230769 C14.8328831,13.6321667 14.7968701,13.8316154 14.7455974,14.025641 L15.7142857,14.025641 L15.7142857,14.9294872 L14.2792597,14.9294872 C13.8312338,15.4754103 13.1549221,15.8333333 12.3913247,15.8333333 C11.6277273,15.8333333 10.9514156,15.4754103 10.5033896,14.9294872 L9,14.9294872 L9,14.025641 L10.0370519,14.025641 C9.98577922,13.8316154 9.94976623,13.6321667 9.94976623,13.4230769 L9.94976623,13.1217949 L9,13.1217949 L9,12.2179487 L9.94976623,12.2179487 L9.94976623,11.6153846 C9.94976623,11.5123462 9.96807792,11.4141282 9.9808961,11.3141026 L9,11.3141026 L9,10.4102564 L10.290974,10.4102564 C10.5241429,10.0167821 10.8647403,9.69682051 11.2755325,9.48532051 L10.4179351,8.63932051 L11.0655584,8 L12.2961039,9.21476923 C12.3284545,9.2135641 12.3247922,9.20874359 12.3571429,9.20874359 C12.3687403,9.20874359 12.4126882,9.21356415 12.4242857,9.21416671 L13.6487273,8 L14.2963506,8.63932051 L13.4631688,9.46182051 C13.8934935,9.67211538 14.249961,10.0023205 14.4916753,10.4102564 L15.7142857,10.4102564 L15.7142857,11.3141026 L14.8017532,11.3141026 C14.8145714,11.4141282 14.8328831,11.5123462 14.8328831,11.6153846 L14.8328831,12.2179487 L15.7142857,12.2179487 L15.7142857,13.1217949 L14.8328831,13.1217949 Z M11.3499999,11.3571429 L11.3499999,12.1964286 L13.3642856,12.1964286 L13.3642856,11.3571429 L11.3499999,11.3571429 Z M11.3499999,13.0357143 L11.3499999,13.875 L13.3642856,13.875 L13.3642856,13.0357143 L11.3499999,13.0357143 Z"/>
    <path fill="#9AA7B0" fill-opacity=".8" d="M5.5,9 L5.5,15 L3,15 L3,1 L5.5,1 L12,1 L12,3.5 L5.5,3.5 L5.5,6.5 L11,6.5 L11,9 L5.5,9 Z"/>
  </g>
</svg>

<svg xmlns="http://www.w3.org/2000/svg" width="16" height="16" viewBox="0 0 16 16"><rect id="frame" width="16" height="16" fill="none"/><g fill="none" fill-rule="evenodd"><path fill="#59A869" d="M14.833 13.122v.301c0 .21-.036.409-.087.603h.968v.903H14.28a2.44 2.44 0 0 1-1.888.904 2.44 2.44 0 0 1-1.888-.904H9v-.903h1.037a2.345 2.345 0 0 1-.087-.603v-.301H9v-.904h.95v-.603c0-.103.018-.2.03-.3H9v-.905h1.291a2.44 2.44 0 0 1 .985-.925l-.858-.846.648-.639 1.23 1.215c.032-.001.029-.006.061-.006l.067.005L13.65 8l.647.64-.833.822c.43.21.787.54 1.029.948h1.222v.904h-.912c.013.1.03.198.03.301v.603h.882v.904h-.881zm-3.483-1.765v.84h2.014v-.84H11.35zm0 1.679v.839h2.014v-.84H11.35z"/><path fill="#9AA7B0" fill-opacity=".8" d="M5.5 9v6H3V1h9v2.5H5.5v3H11V9H5.5z"/></g></svg>
